svg/blobs-icons/no-decorations/ink-feather.svg

<svg xmlns="http://www.w3.org/2000/svg" xmlns:xlink="http://www.w3.org/1999/xlink" preserveAspectRatio="xMidYMid" width="207" height="217" viewBox="0 0 207 217"><defs><style>.cls-3{fill:#142a3b}.cls-4{fill:#fff}.cls-6{fill:#020403;opacity:.35}.cls-7{fill:#fbb713}.cls-8{fill:#bb860e}</style></defs><g id="group-101svg"><path d="M80.898 166.204s0-20.207.0-20.207 10.113.0 10.113.0.0-20.21.0-20.21-50.564.0-50.564.0.0 20.21.0 20.21 10.114.0 10.114.0.0 20.207.0 20.207C19.674 170.245 2.37 185.362-.003 216.725H132.216c-2.374-31.363-20.432-46.48-51.318-50.521z" id="path-1" class="cls-3" fill-rule="evenodd"/><path d="M14.47 210.935C14.216 210.935 13.959 210.908 13.701 210.852 11.748 210.429 10.511 208.504 10.935 206.553c4.273-19.693 14.773-26.391 30.325-30.812C43.182 175.197 45.179 176.309 45.725 178.229 46.271 180.15 45.157 182.149 43.237 182.696 29.601 186.571 21.541 191.765 17.998 208.086 17.631 209.78 16.135 210.935 14.47 210.935z" id="path-2" class="cls-4" fill-rule="evenodd"/><path d="M47.778 140.225C46.779 140.225 45.97 139.415 45.97 138.418V133.366C45.97 132.367 46.779 131.559 47.778 131.559 48.777 131.559 49.585 132.367 49.585 133.366V138.418C49.585 139.415 48.777 140.225 47.778 140.225z" id="path-3" class="cls-4" fill-rule="evenodd"/><path d="M80.898 166.204s0-20.209.0-20.209 10.113.0 10.113.0.0-20.208.0-20.208-20.226.0-20.226.0.0 20.208.0 20.208-20.225.0-20.225.0.0 10.105.0 10.105c30.886 4.041 59.057 29.262 61.431 60.625h20.225c-2.374-31.363-20.432-46.48-51.318-50.521z" id="path-4" class="cls-6" fill-rule="evenodd"/><path d="M156.743 38.114s0-37.365.0-37.365C146.63 5.75 129.968 16.765 114.732 31.987 85.114 61.58 70.633 96.346 84.453 110.158l72.29-72.044z" id="path-5" class="cls-7" fill-rule="evenodd"/><path d="M103.125 91.686s53.618.0 53.618.0c-28.319 25.73-59.409 31.418-72.369 18.472l18.751-18.472z" id="path-6" class="cls-8" fill-rule="evenodd"/><path d="M68.511 129.803C67.583 129.803 66.659 129.449 65.953 128.742 64.543 127.331 64.543 125.04 65.956 123.63L188.714 1.034C190.126-.378 192.413-.374 193.825 1.037 195.236 2.449 195.236 4.738 193.821 6.149L71.064 128.746C70.358 129.45 69.435 129.803 68.511 129.803z" id="path-7" class="cls-3" fill-rule="evenodd"/><path d="M171.912 75.092s-48.561.0-48.561.0c-1.997.0-3.616-1.618-3.616-3.614.0-1.996 1.619-3.615 3.616-3.615h48.561c1.99599999999998.0 3.614 1.619 3.614 3.615C175.526 73.474 173.908 75.092 171.912 75.092z" id="path-8" class="cls-3" fill-rule="evenodd"/><path d="M186.619 54.884s-43.149.0-43.149.0C141.474 54.884 139.855 53.267 139.855 51.27c0-1.996 1.619-3.614 3.61500000000001-3.614h43.149C188.615 47.656 190.234 49.274 190.234 51.27c0 1.997-1.619 3.614-3.61500000000001 3.614z" id="path-9" class="cls-3" fill-rule="evenodd"/><path d="M202.431 36.638s-38.093.0-38.093.0C162.342 36.638 160.725 35.02 160.725 33.024S162.342 29.409 164.338 29.409h38.093C204.427 29.409 206.046 31.028 206.046 33.024S204.427 36.638 202.431 36.638z" id="path-10" class="cls-3" fill-rule="evenodd"/></g></svg>

<svg xmlns="http://www.w3.org/2000/svg" xmlns:xlink="http://www.w3.org/1999/xlink" preserveAspectRatio="xMidYMid" width="207" height="217" viewBox="0 0 207 217">
  <defs>
    <style>

      .cls-3 {
        fill: #142a3b;
      }

      .cls-4 {
        fill: #ffffff;
      }

      .cls-6 {
        fill: #020403;
        opacity: 0.35;
      }

      .cls-7 {
        fill: #fbb713;
      }

      .cls-8 {
        fill: #bb860e;
      }
    </style>
  </defs>
  <g id="group-101svg">
    <path d="M80.898,166.204 C80.898,166.204 80.898,145.997 80.898,145.997 C80.898,145.997 91.011,145.997 91.011,145.997 C91.011,145.997 91.011,125.787 91.011,125.787 C91.011,125.787 40.447,125.787 40.447,125.787 C40.447,125.787 40.447,145.997 40.447,145.997 C40.447,145.997 50.561,145.997 50.561,145.997 C50.561,145.997 50.561,166.204 50.561,166.204 C19.674,170.245 2.370,185.362 -0.003,216.725 C-0.003,216.725 132.216,216.725 132.216,216.725 C129.842,185.362 111.784,170.245 80.898,166.204 Z" id="path-1" class="cls-3" fill-rule="evenodd"/>
    <path d="M14.470,210.935 C14.216,210.935 13.959,210.908 13.701,210.852 C11.748,210.429 10.511,208.504 10.935,206.553 C15.208,186.860 25.708,180.162 41.260,175.741 C43.182,175.197 45.179,176.309 45.725,178.229 C46.271,180.150 45.157,182.149 43.237,182.696 C29.601,186.571 21.541,191.765 17.998,208.086 C17.631,209.780 16.135,210.935 14.470,210.935 Z" id="path-2" class="cls-4" fill-rule="evenodd"/>
    <path d="M47.778,140.225 C46.779,140.225 45.970,139.415 45.970,138.418 C45.970,138.418 45.970,133.366 45.970,133.366 C45.970,132.367 46.779,131.559 47.778,131.559 C48.777,131.559 49.585,132.367 49.585,133.366 C49.585,133.366 49.585,138.418 49.585,138.418 C49.585,139.415 48.777,140.225 47.778,140.225 Z" id="path-3" class="cls-4" fill-rule="evenodd"/>
    <path d="M80.898,166.204 C80.898,166.204 80.898,145.995 80.898,145.995 C80.898,145.995 91.011,145.995 91.011,145.995 C91.011,145.995 91.011,125.787 91.011,125.787 C91.011,125.787 70.785,125.787 70.785,125.787 C70.785,125.787 70.785,145.995 70.785,145.995 C70.785,145.995 50.560,145.995 50.560,145.995 C50.560,145.995 50.560,156.100 50.560,156.100 C81.446,160.141 109.617,185.362 111.991,216.725 C111.991,216.725 132.216,216.725 132.216,216.725 C129.842,185.362 111.784,170.245 80.898,166.204 Z" id="path-4" class="cls-6" fill-rule="evenodd"/>
    <path d="M156.743,38.114 C156.743,38.114 156.743,0.749 156.743,0.749 C146.630,5.750 129.968,16.765 114.732,31.987 C85.114,61.580 70.633,96.346 84.453,110.158 C84.453,110.158 156.743,38.114 156.743,38.114 Z" id="path-5" class="cls-7" fill-rule="evenodd"/>
    <path d="M103.125,91.686 C103.125,91.686 156.743,91.686 156.743,91.686 C128.424,117.416 97.334,123.104 84.374,110.158 C84.374,110.158 103.125,91.686 103.125,91.686 Z" id="path-6" class="cls-8" fill-rule="evenodd"/>
    <path d="M68.511,129.803 C67.583,129.803 66.659,129.449 65.953,128.742 C64.543,127.331 64.543,125.040 65.956,123.630 C65.956,123.630 188.714,1.034 188.714,1.034 C190.126,-0.378 192.413,-0.374 193.825,1.037 C195.236,2.449 195.236,4.738 193.821,6.149 C193.821,6.149 71.064,128.746 71.064,128.746 C70.358,129.450 69.435,129.803 68.511,129.803 Z" id="path-7" class="cls-3" fill-rule="evenodd"/>
    <path d="M171.912,75.092 C171.912,75.092 123.351,75.092 123.351,75.092 C121.354,75.092 119.735,73.474 119.735,71.478 C119.735,69.482 121.354,67.863 123.351,67.863 C123.351,67.863 171.912,67.863 171.912,67.863 C173.908,67.863 175.526,69.482 175.526,71.478 C175.526,73.474 173.908,75.092 171.912,75.092 Z" id="path-8" class="cls-3" fill-rule="evenodd"/>
    <path d="M186.619,54.884 C186.619,54.884 143.470,54.884 143.470,54.884 C141.474,54.884 139.855,53.267 139.855,51.270 C139.855,49.274 141.474,47.656 143.470,47.656 C143.470,47.656 186.619,47.656 186.619,47.656 C188.615,47.656 190.234,49.274 190.234,51.270 C190.234,53.267 188.615,54.884 186.619,54.884 Z" id="path-9" class="cls-3" fill-rule="evenodd"/>
    <path d="M202.431,36.638 C202.431,36.638 164.338,36.638 164.338,36.638 C162.342,36.638 160.725,35.020 160.725,33.024 C160.725,31.028 162.342,29.409 164.338,29.409 C164.338,29.409 202.431,29.409 202.431,29.409 C204.427,29.409 206.046,31.028 206.046,33.024 C206.046,35.020 204.427,36.638 202.431,36.638 Z" id="path-10" class="cls-3" fill-rule="evenodd"/>
  </g>
</svg>
